X:1
T:Title
%%score { 1 | 2 } 3
L:1/8
Q:1/4=95
M:3/4
K:G
V:1 treble nm="Grand Piano, Soprano"
V:2 treble 
V:3 bass nm="Choir Pad, Ivankovic, 87.87.88.87"
V:1
 D2 G>G G2 | A2 B>B B2- | B2 A>B c2 | F2 A>G G2 | D2 G>G G2 | A2 B>B B2- | B2 A>B c2 | F2 A>G G2 | %8
w: By~Alexander~Zarnock,~arr.~1885 * * *||||||||
 z z/ d/ d>B e2- | ed d>c c2- | cc c>A d2- | dc c>B B2 | D2 G>G G2 | A2 B>B B2- | B2 A>B c2 | %15
w: |||||||
 F2 A>G G2- | G6 |] %17
w: ||
V:2
 z2 D>D D2 | F2 G>G G2- | G2 F>G A2 | D2 D>D D2 | z2 D>D D2 | F2 G>G G2- | G2 F>G A2 | D2 D>D D2 | %8
 z z/ D/ D>D D2- | DD F>F F2- | FF F>F F2- | FF E>D D2 | z2 D>D D2 | F2 G>G G2- | G2 F>G A2 | %15
 D2 D>D D2- | D6 |] %17
V:3
 [G,B,]2 [G,B,]>[G,B,] [G,B,]2 | [D,D]2 [G,D]>[G,D] [G,D]2- | [G,D]2 [D,D]>[D,D] [D,D]2 | %3
 [D,A,]2 [G,C]>[G,B,] [G,B,]2 | [G,B,]2 [G,B,]>[G,B,] [G,B,]2 | [D,D]2 [G,D]>[G,D] [G,D]2- | %6
 [G,D]2 [D,D]>[D,D] [D,D]2 | [D,A,]2 [G,C]>[G,B,] [G,B,]2 | z z/ [G,B,]/ [G,B,]>G, [G,C]2- | %9
 [G,C][G,B,] [D,B,]>[D,A,] [D,A,]2- | [D,A,][D,A,] [D,A,]>[D,A,] [D,A,]2- | %11
 [D,A,][D,A,] G,>G, G,2 | [G,B,]2 [G,B,]>[G,B,] [G,B,]2 | [D,D]2 [G,D]>[G,D] [G,D]2- | %14
 [G,D]2 [D,D]>[D,D] [D,D]2 | [D,A,]2 [G,C]>[G,B,] [G,B,]2- | [G,B,]6 |] %17

